television-ambient-light.svg

<svg fill="currentColor" viewBox="0 0 24 24"><path d="M3 11H0V9h3zm0 3H0v2h3zm2-8.88L2.88 3 1.46 4.41l2.13 2.13zM10 5V2H8v3zm14 4h-3v2h3zm-8-4V2h-2v3zm4.41 1.54 2.13-2.12L21.12 3 19 5.12zM24 14h-3v2h3zm-5-5v7c0 1.1-.9 2-2 2h-2v2H9v-2H7c-1.1 0-2-.9-2-2V9c0-1.1.9-2 2-2h10c1.1 0 2 .9 2 2m-2 0H7v7h10zm2 10.88L21.12 22l1.42-1.41-2.13-2.12zM3.59 18.46l-2.12 2.13L2.88 22 5 19.88z"/></svg>

<svg  viewBox="0 0 24 24" fill="currentColor"><path  d="M3 11H0V9H3V11M3 14H0V16H3V14M5 5.12L2.88 3L1.46 4.41L3.59 6.54L5 5.12M10 5V2H8V5H10M24 9H21V11H24V9M16 5V2H14V5H16M20.41 6.54L22.54 4.42L21.12 3L19 5.12L20.41 6.54M24 14H21V16H24V14M19 9V16C19 17.1 18.1 18 17 18H15V20H9V18H7C5.9 18 5 17.1 5 16V9C5 7.9 5.9 7 7 7H17C18.1 7 19 7.9 19 9M17 9H7V16H17V9M19 19.88L21.12 22L22.54 20.59L20.41 18.47L19 19.88M3.59 18.46L1.47 20.59L2.88 22L5 19.88L3.59 18.46Z"/></svg>
